src/features/inventory/assets/reset.svg

<svg width="14" height="14" viewBox="0 0 14 14" fill="none" xmlns="http://www.w3.org/2000/svg">
<path d="M13 6.99966H4.98595M2.15719 6.99966H1M2.15719 6.99966C2.15719 6.60489 2.30617 6.22629 2.57136 5.94715C2.83654 5.668 3.19621 5.51118 3.57124 5.51118C3.94627 5.51118 4.30594 5.668 4.57113 5.94715C4.83632 6.22629 4.9853 6.60489 4.9853 6.99966C4.9853 7.39443 4.83632 7.77303 4.57113 8.05217C4.30594 8.33131 3.94627 8.48814 3.57124 8.48814C3.19621 8.48814 2.83654 8.33131 2.57136 8.05217C2.30617 7.77303 2.15719 7.39443 2.15719 6.99966ZM13 11.5108H9.27157M9.27157 11.5108C9.27157 11.9057 9.12223 12.2847 8.85698 12.5639C8.59173 12.8431 8.23198 13 7.85686 13C7.48183 13 7.12216 12.8425 6.85698 12.5634C6.59179 12.2842 6.44281 11.9056 6.44281 11.5108M9.27157 11.5108C9.27157 11.116 9.12223 10.7376 8.85698 10.4584C8.59173 10.1792 8.23198 10.0224 7.85686 10.0224C7.48183 10.0224 7.12216 10.1792 6.85698 10.4583C6.59179 10.7375 6.44281 11.1161 6.44281 11.5108M6.44281 11.5108H1M13 2.48848H10.9859M8.15719 2.48848H1M8.15719 2.48848C8.15719 2.09371 8.30617 1.71511 8.57136 1.43597C8.83654 1.15682 9.19621 1 9.57124 1C9.75694 1 9.94082 1.0385 10.1124 1.1133C10.2839 1.18811 10.4398 1.29775 10.5711 1.43597C10.7024 1.57418 10.8066 1.73827 10.8777 1.91886C10.9487 2.09945 10.9853 2.29301 10.9853 2.48848C10.9853 2.68395 10.9487 2.8775 10.8777 3.05809C10.8066 3.23868 10.7024 3.40277 10.5711 3.54099C10.4398 3.67921 10.2839 3.78885 10.1124 3.86365C9.94082 3.93846 9.75694 3.97696 9.57124 3.97696C9.19621 3.97696 8.83654 3.82013 8.57136 3.54099C8.30617 3.26185 8.15719 2.88325 8.15719 2.48848Z" stroke="#1E293B" stroke-width="1.5" stroke-miterlimit="10" stroke-linecap="round"/>
</svg>

<svg xmlns="http://www.w3.org/2000/svg" width="14" height="14" fill="none"><path stroke="#1E293B" stroke-linecap="round" stroke-miterlimit="10" stroke-width="1.5" d="M13 7H4.986M2.157 7H1m1.157 0c0-.395.15-.774.414-1.053a1.38 1.38 0 0 1 1-.436c.375 0 .735.157 1 .436.265.28.414.658.414 1.053 0 .394-.149.773-.414 1.052a1.38 1.38 0 0 1-1 .436 1.38 1.38 0 0 1-1-.436A1.53 1.53 0 0 1 2.157 7ZM13 11.51H9.272m0 0c0 .396-.15.775-.415 1.054a1.38 1.38 0 0 1-1 .436 1.38 1.38 0 0 1-1-.437 1.53 1.53 0 0 1-.414-1.052m2.829 0c0-.395-.15-.773-.415-1.053a1.38 1.38 0 0 0-1-.436 1.38 1.38 0 0 0-1 .436 1.53 1.53 0 0 0-.414 1.053m0 0H1m12-9.023h-2.014m-2.829 0H1m7.157 0c0-.394.15-.773.414-1.052a1.38 1.38 0 0 1 1-.436c.186 0 .37.038.541.113.172.075.328.185.46.323.13.138.235.302.306.483a1.558 1.558 0 0 1 0 1.14c-.071.18-.176.344-.307.482a1.412 1.412 0 0 1-.459.323 1.353 1.353 0 0 1-.54.113 1.38 1.38 0 0 1-1-.436 1.53 1.53 0 0 1-.415-1.053Z"/></svg>
